X: 1
T: Rumynskiy Motiv   [Gm]
T: Khupa Tanz #2 (Abe Schwartz)
O: Belf's Rumanian Orchestra
M: 2/4
L: 1/8
Q: 1/4=160
K: Gm
|:\
"Gm"DG G^F | "D7"^FA AG |\
"Gm"GB BA | "D7"Ac cB |\
"Gm"Bd dc | "Cm"ce ed |\
"Gm"dc Bc | d4 ||\
"Cm"ce eA | "D7"Ac cB |
"Gm"Bd dG | GB BG |\
"D"D^F Ac | B3 A |\
"Gm"AG G2- |[1 G4 :|[2 G2 "F7"(3FGA \
|:\
"Bb"B4- | BF dF |
B4- | BF dF |\
BF dF | BF dF |\
BF dF | ed cB |\
"F"A4- | AF cF |\
"F"A4- | AF f2 |
fe ed | dc cB |\
[1 "Bb"B4- | B2 (3FGA :|\
[2 "Bb"cd B2- | B4 \
|:\
"Gm"d4 | "A"^c4 |\
"Gm"B4 | "D"A4 |\
"Gm"G^F GA | BA GB |
"Cm"AG ^FE | "D"D4 |\
"Cm"ed ce | "Bb"dc Bd |\
"F"cB Ac | "Gm"B2Bd |\
"(D7)"dc cB | "D7"BA AG |\
"G(m)"AB G2- | G4 :|
